X: 2
T: The Rose Tree
R: polka
M: 2/4
L: 1/8
K: Cmaj
e/d/|:cAGE| G/A/G/E/G A/B/| cB/c/dc/d/| edde/d/|cAGE| G/A/G/E/G A/B/| cB/c/dc/d/|1edce/d/:|2edcc/d/|||:edef |gagf/e/| d aaa/b/ |a dde/d/ |cAGE| G/A/G/E/G A/B/| cB/c/dc/d/|1edcc/d/:|2edc2||


Tune 1123	Setting 1123

